packages/kaspersky-hexa-ui-icons/src/iconsSVGs/16/AccountSearch.svg

<svg width="16" height="16" viewBox="0 0 16 16" fill="none" xmlns="http://www.w3.org/2000/svg">
<path fill-rule="evenodd" clip-rule="evenodd" d="M5.02325 4.06132C5.02325 2.42581 6.34909 1.09998 7.9846 1.09998C9.6201 1.09998 10.9459 2.42581 10.9459 4.06132C10.9459 5.69682 9.6201 7.02266 7.9846 7.02266C6.34909 7.02266 5.02325 5.69682 5.02325 4.06132ZM7.9846 2.39998C7.06706 2.39998 6.32325 3.14378 6.32325 4.06132C6.32325 4.97885 7.06706 5.72266 7.9846 5.72266C8.90213 5.72266 9.64594 4.97885 9.64594 4.06132C9.64594 3.14378 8.90213 2.39998 7.9846 2.39998Z" fill="black"/>
<path d="M2.03369 11.7824C2.03369 9.76661 3.66785 8.13245 5.68369 8.13245H8.35164C7.87941 8.4746 7.48587 8.9187 7.20331 9.43245H5.68369C4.38582 9.43245 3.33369 10.4846 3.33369 11.7824V12.85C3.33369 13.2642 3.66948 13.6 4.08369 13.6H7.43144C7.82105 14.155 8.34989 14.6053 8.96723 14.9H4.08369C2.9515 14.9 2.03369 13.9821 2.03369 12.85V11.7824Z" fill="black"/>
<path fill-rule="evenodd" clip-rule="evenodd" d="M14.1264 13.8737C14.3803 14.1275 14.3803 14.5391 14.1264 14.7929C13.8726 15.0468 13.461 15.0468 13.2072 14.7929L12.0241 13.6098C11.6271 13.847 11.1628 13.9833 10.6668 13.9833C9.20323 13.9833 8.01678 12.7968 8.01678 11.3333C8.01678 10.5877 8.32472 9.91398 8.82035 9.43245C9.29759 8.96876 9.94877 8.68324 10.6667 8.68324C12.1303 8.68324 13.3167 9.86969 13.3167 11.3332C13.3167 11.8293 13.1804 12.2935 12.9432 12.6905M10.6668 9.98329C9.9212 9.98329 9.31678 10.5877 9.31678 11.3333C9.31678 12.0789 9.9212 12.6833 10.6668 12.6833C11.4124 12.6833 12.0168 12.0789 12.0168 11.3333C12.0168 10.5877 11.4124 9.98329 10.6668 9.98329Z" fill="black"/>
</svg>

<svg xmlns="http://www.w3.org/2000/svg" width="16" height="16" fill="none" viewBox="0 0 16 16"><path fill="#000" fill-rule="evenodd" d="M5.0233 4.0613C5.0233 2.4258 6.349 1.1 7.9846 1.1s2.9613 1.3258 2.9613 2.9613-1.3258 2.9614-2.9613 2.9614-2.9614-1.3259-2.9614-2.9614M7.9846 2.4c-.9175 0-1.6614.7438-1.6614 1.6613s.7439 1.6614 1.6614 1.6614 1.6613-.7438 1.6613-1.6614S8.9021 2.4 7.9846 2.4m-5.951 9.3825c0-2.0159 1.6343-3.65 3.65-3.65h2.668a3.97 3.97 0 0 0-1.1483 1.3H5.6837c-1.2979 0-2.35 1.0521-2.35 2.35V12.85a.75.75 0 0 0 .75.75h3.3477a3.97 3.97 0 0 0 1.5358 1.3H4.0837c-1.1322 0-2.05-.9179-2.05-2.05zm12.0928 3.0104a.65.65 0 0 0 0-.9192l-1.1831-1.1832a2.64 2.64 0 0 0 .3734-1.3573c0-1.4635-1.1864-2.65-2.65-2.65a2.64 2.64 0 0 0-1.8464.7493c-.4956.4815-.8035 1.1552-.8035 1.9008 0 1.4635 1.1864 2.65 2.65 2.65.4961 0 .9603-.1363 1.3573-.3735l1.1831 1.1831a.65.65 0 0 0 .9192 0m-4.8096-3.4596c0-.7456.6044-1.35 1.35-1.35s1.35.6044 1.35 1.35-.6044 1.35-1.35 1.35-1.35-.6044-1.35-1.35"/></svg>
